!!!OTL: Lied eines Landmann's in der Fremde.
!!!OTL-incipit:TRAUTE HEIMATH MEINER LIEBEN
!!!COM: V. Righini
!!!ARE: Europa, Mitteleuropa, Deutschland
!!!SCT: F0444
!!!TXL: @@DE
!!!YEM: Copyright 1995, estate of Helmut Schaffrath.
**kern	**text
*ICvox	*
*clefG2	*
*M4/4	*
*met(c)	*
*k[]	*
*C:	*
!LO:TX:a:t=Etwas lebhaft.	!
{8eL	1._Traute
8fJ	.
8gL	.
8aJ	.
=1	=1
4g	Heimath
4g	.
16bqq	.
8a\L	mei-
8gJ	.
8a\L	-ner
8bJ	.
=2	=2
4cc	Lie-
4ee}	-ben,
{4ee	ſinn'
4cc	ich
=3	=3
4g	ſtill
4e	an
4f	dich
4a	ʒu-
=4	=4
2d}	-rück,
{4.dd	wird
8b	mir
=5	=5
4cc	wohl,
8r	.
8ee	und
4.dd	den-
8b	-noch
=6	=6
4cc	trüben
4g\}	.
{4ee	Sehnſuchts-
4dd	.
=7	=7
4cc	-thränen
4b	.
4a	mei-
4g#	-nen
=8	=8
2a}	Blick,
{8ccL	Sehnſuchsthrä-
8bJ	.
8ccL	.
8aJ	.
=9	=9
4.g	.
8e	-nen
8aqq	.
(8fL	mei-
8eJ)	.
(8fL	-nen
8dJ)	.
=10	=10
4c	Blick.
4r}	.
==	==
!!!AGN: Heimat - Lied
!!!ONB: ESAC (Essen Associative Code) Database: FINK
!!!AMT: simple quadruple
!!!AIN: vox
!!!EED: Helmut Schaffrath
!!!EEV: 1.0
!!Text: Salis
!!!GTL: Vaterlands- und Heimathslieder
!!!GTL: Vaterlands- und Heimathslieder.
!!!source: Musikalischer Hausschatz der Deutschen. Eine Sammlung von über 1000 Liedern und Gesängen mit Singstimmen und Klavierbegleitung. Leipzig, Litterarisches Verlags-Haus.
!!!page: 273
!!!URL-scan: https://www.digitale-sammlungen.de/en/view/bsb11144622?page=263
!!!ENC: Anna Maria Matuszewska
!!!EEV: 2024/07/31
*-	*-